modules/hawcons-filled/icons/icon-54-compass-west.svg

<?xml version="1.0" encoding="UTF-8" standalone="no"?>
<svg width="32px" height="32px" viewBox="0 0 32 32" version="1.1" xmlns="http://www.w3.org/2000/svg" xmlns:xlink="http://www.w3.org/1999/xlink" xmlns:sketch="http://www.bohemiancoding.com/sketch/ns">
    <!-- Generator: Sketch 3.0.3 (7891) - http://www.bohemiancoding.com/sketch -->
    <title>icon 54 compass west</title>
    <desc>Created with Sketch.</desc>
    <defs></defs>
    <g id="Page-1" stroke="none" stroke-width="1" fill="none" fill-rule="evenodd" sketch:type="MSPage">
        <g id="icon-54-compass-west" sketch:type="MSArtboardGroup" fill="#929292">
            <path d="M16,3 C8.8202979,3 3,8.8202979 3,16 C3,23.1797021 8.8202979,29 16,29 C23.1797021,29 29,23.1797021 29,16 C29,8.8202979 23.1797021,3 16,3 L16,3 Z M16,4 C9.37258267,4 4,9.37258267 4,16 C4,22.6274173 9.37258267,28 16,28 C22.6274173,28 28,22.6274173 28,16 C28,9.37258267 22.6274173,4 16,4 L16,4 Z M16,5 C9.92486745,5 5,9.92486745 5,16 C5,22.0751325 9.92486745,27 16,27 C22.0751325,27 27,22.0751325 27,16 C27,9.92486745 22.0751325,5 16,5 L16,5 Z M16,13 C17.6568542,13 19,14.3465171 19,16 C19,17.6568542 17.6631378,19 16,19 C14,19 7,16 7,16 C7,16 14,13 16,13 L16,13 Z M16,14 C14.8954304,14 14,14.8954304 14,16 C14,17.1045696 14.8954304,18 16,18 C17.1045696,18 18,17.1045696 18,16 C18,14.8954304 17.1045696,14 16,14 L16,14 Z" id="compass-west" sketch:type="MSShapeGroup"></path>
        </g>
    </g>
</svg>

<svg width="32" height="32" xmlns="http://www.w3.org/2000/svg"><path d="M16 3C8.82 3 3 8.82 3 16s5.82 13 13 13 13-5.82 13-13S23.18 3 16 3zm0 1C9.373 4 4 9.373 4 16s5.373 12 12 12 12-5.373 12-12S22.627 4 16 4zm0 1C9.925 5 5 9.925 5 16s4.925 11 11 11 11-4.925 11-11S22.075 5 16 5zm0 8c1.657 0 3 1.347 3 3 0 1.657-1.337 3-3 3-2 0-9-3-9-3s7-3 9-3zm0 1a2 2 0 1 0 0 4 2 2 0 0 0 0-4z" fill="#929292" fill-rule="evenodd"/></svg>
